!!!OTL: 19e. Die schwarzbraune Hexe.
!!!ARE: Europa, Mitteleuropa, Deutschland, Coethen
!!!SCT: E0019C
!!!TXL: @@DE
!!!YEM: Copyright 1995, estate of Helmut Schaffrath.
**kern	**text
*ICvox	*
*M4/4	*
*met(c)	*
*k[b-]	*
*F:	*
!LO:TX:a:t=Mäßig ſchnell.	!
!LO:TX:a:t=Umgegend von Cöthen.	!
{4c	Es
=1	=1
4f	blies
4f	ein
4a	Jä-
8a	-ger
8b-/	wol
=2	=2
4cc	in
8ccL	ſein
8b-J	.
4a}	Horn,
{4ff	Juch-
=3	=3
4.cc	-hei-
8b-	-di
4a	hop-
4b-	-ſa-
=4	=4
2cc	-ſa!
4r}	.
{8a/L	und
8ccJ	.
=5	=5
8cc	al-
8b-	-les
8b-	was
8a	er
4g	blies,
8gL	das
8b-J	.
=6	=6
4a	war
4g	ver-
4f}	-lorn.
{4c	Und
=7	=7
4.f	al-
8g	-le-
4a	-weil,
4f	und
=8	=8
4.g	al-
8a	-le-
4b-}	-weil
{4cc	und
=9	=9
8a	al-
8a	-le-
8a	-wei-
8a	-le
4g	bei
4g	der
=10	=10
4f	Nacht,
4ff^	juch-
4.cc^}	-hei!
{8b-	und
=11	=11
8a	al-
8a	-le-
8a	-wei-
8a	-le
(16aqq	.
4g)	bei
4g	der
=12	=12
2f	Nacht.
4r}	.
==	==
!!!AGN: Sage, Maerchen -, Zauber - Lied, Ballade ?
!!!ONB: ESAC (Essen Associative Code) Database: ERK1
!!!AMT: simple quadruple
!!!AIN: vox
!!!EED: Helmut Schaffrath
!!!EEV: 1.0
!!!GTL: Nachtklaenge der Goettersage (Zaubermaeren)
!!!URL-scan: https://rosdok.uni-rostock.de/mcrviewer/recordIdentifier/rosdok_ppn745146120/iview2/phys_0117.iview2?x=-4.404412318552431&y=57.10522079607472&scale=0.645690413860662&rotation=0&layout=singlePageLayout&logicalDiv=log_0009
!!!ENC: Anna Maria Matuszewska
!!!EEV: 2024/22/11
*-	*-
